X: 285
T: I Will Drink No More
B: O'Neill's 285
N: "Slow"
N: "Collected by J.O'Neill"
Z: 1997 by John Chambers <jc@trillian.mit.edu>
M: 3/4
L: 1/8
K:D
AA(d/e/) \
|"mf"f2 f2 ed|d2 "p"A2 AG|F2 DF ED|D3 A/B/ c/d/e \
|f2 df ed|dc "dim."A2 dA/G/|F2 D"pp"F FED|D3||
||"cresc."D AG \
|F2 E2 DF|E2 E2 D/F/A/B/|c2 BA dc/A/|A3 .A/.B/ c/d/e \
|f3 d ed|dc "dim."A2 dA/G/|F2 D"pp"F FED|D3||
